; G-Code generated by Simplify3D(R) Version 4.0.0
; Nov 23, 2018 at 11:30:23 AM
; Settings Summary
;   processName,Process1
;   applyToModels,Retraction Test Tower Baseplate
;   profileName,Default (modified)
;   profileVersion,2017-03-01 08:00:00
;   baseProfile,
;   printMaterial,PLA
;   printQuality,Medium
;   printExtruders,
;   extruderName,Primary Extruder
;   extruderToolheadNumber,0
;   extruderDiameter,0.35
;   extruderAutoWidth,0
;   extruderWidth,0.4
;   extrusionMultiplier,0.9
;   extruderUseRetract,1
;   extruderRetractionDistance,4
;   extruderExtraRestartDistance,0
;   extruderRetractionZLift,0
;   extruderRetractionSpeed,1200
;   extruderUseCoasting,0
;   extruderCoastingDistance,0.2
;   extruderUseWipe,0
;   extruderWipeDistance,5
;   primaryExtruder,0
;   layerHeight,0.2
;   topSolidLayers,3
;   bottomSolidLayers,3
;   perimeterOutlines,2
;   printPerimetersInsideOut,1
;   startPointOption,2
;   startPointOriginX,0
;   startPointOriginY,0
;   sequentialIslands,0
;   spiralVaseMode,0
;   firstLayerHeightPercentage,90
;   firstLayerWidthPercentage,100
;   firstLayerUnderspeed,0.5
;   useRaft,0
;   raftExtruder,0
;   raftTopLayers,3
;   raftBaseLayers,2
;   raftOffset,3
;   raftSeparationDistance,0.14
;   raftTopInfill,100
;   aboveRaftSpeedMultiplier,0.3
;   useSkirt,1
;   skirtExtruder,0
;   skirtLayers,1
;   skirtOutlines,2
;   skirtOffset,4
;   usePrimePillar,0
;   primePillarExtruder,999
;   primePillarWidth,12
;   primePillarLocation,7
;   primePillarSpeedMultiplier,1
;   useOozeShield,0
;   oozeShieldExtruder,999
;   oozeShieldOffset,2
;   oozeShieldOutlines,1
;   oozeShieldSidewallShape,1
;   oozeShieldSidewallAngle,30
;   oozeShieldSpeedMultiplier,1
;   infillExtruder,0
;   internalInfillPattern,Rectilinear
;   externalInfillPattern,Rectilinear
;   infillPercentage,20
;   outlineOverlapPercentage,15
;   infillExtrusionWidthPercentage,100
;   minInfillLength,5
;   infillLayerInterval,1
;   internalInfillAngles,45,-45
;   overlapInternalInfillAngles,0
;   externalInfillAngles,45,-45
;   generateSupport,1
;   supportExtruder,0
;   supportInfillPercentage,30
;   supportExtraInflation,0
;   supportBaseLayers,0
;   denseSupportExtruder,0
;   denseSupportLayers,0
;   denseSupportInfillPercentage,70
;   supportLayerInterval,1
;   supportHorizontalPartOffset,0.3
;   supportUpperSeparationLayers,1
;   supportLowerSeparationLayers,1
;   supportType,0
;   supportGridSpacing,4
;   maxOverhangAngle,45
;   supportAngles,0
;   temperatureName,Primary Extruder
;   temperatureNumber,0
;   temperatureSetpointCount,1
;   temperatureSetpointLayers,1
;   temperatureSetpointTemperatures,190
;   temperatureStabilizeAtStartup,1
;   temperatureHeatedBed,0
;   temperatureRelayBetweenLayers,0
;   temperatureRelayBetweenLoops,0
;   fanLayers,1,2
;   fanSpeeds,0,100
;   blipFanToFullPower,0
;   adjustSpeedForCooling,1
;   minSpeedLayerTime,15
;   minCoolingSpeedSlowdown,20
;   increaseFanForCooling,0
;   minFanLayerTime,45
;   maxCoolingFanSpeed,100
;   increaseFanForBridging,0
;   bridgingFanSpeed,100
;   use5D,1
;   relativeEdistances,0
;   allowEaxisZeroing,1
;   independentExtruderAxes,0
;   includeM10123,0
;   stickySupport,1
;   applyToolheadOffsets,0
;   gcodeXoffset,0
;   gcodeYoffset,0
;   gcodeZoffset,0
;   overrideMachineDefinition,0
;   machineTypeOverride,0
;   strokeXoverride,200
;   strokeYoverride,200
;   strokeZoverride,200
;   originOffsetXoverride,0
;   originOffsetYoverride,0
;   originOffsetZoverride,0
;   homeXdirOverride,-1
;   homeYdirOverride,-1
;   homeZdirOverride,-1
;   flipXoverride,1
;   flipYoverride,-1
;   flipZoverride,1
;   toolheadOffsets,0,0|0,0|0,0|0,0|0,0|0,0
;   overrideFirmwareConfiguration,0
;   firmwareTypeOverride,RepRap (Marlin/Repetier/Sprinter)
;   GPXconfigOverride,r2
;   baudRateOverride,115200
;   overridePrinterModels,0
;   printerModelsOverride
;   startingGcode,G28 ; home all axes
;   layerChangeGcode,
;   retractionGcode,
;   toolChangeGcode,
;   endingGcode,M104 S0 ; turn off extruder,M140 S0 ; turn off bed,M84 ; disable motors
;   exportFileFormat,gcode
;   celebration,0
;   celebrationSong,Random Song
;   postProcessing,
;   defaultSpeed,3600
;   outlineUnderspeed,0.5
;   solidInfillUnderspeed,0.8
;   supportUnderspeed,0.8
;   rapidXYspeed,4800
;   rapidZspeed,1000
;   minBridgingArea,50
;   bridgingExtraInflation,0
;   bridgingExtrusionMultiplier,1
;   bridgingSpeedMultiplier,1
;   useFixedBridgingAngle,0
;   fixedBridgingAngle,0
;   applyBridgingToPerimeters,0
;   filamentDiameters,1.75|1.75|1.75|1.75|1.75|1.75
;   filamentPricesPerKg,46|46|46|46|46|46
;   filamentDensities,1.25|1.25|1.25|1.25|1.25|1.25
;   useMinPrintHeight,0
;   minPrintHeight,0
;   useMaxPrintHeight,0
;   maxPrintHeight,0
;   useDiaphragm,0
;   diaphragmLayerInterval,20
;   robustSlicing,1
;   mergeAllIntoSolid,0
;   onlyRetractWhenCrossingOutline,1
;   retractBetweenLayers,1
;   useRetractionMinTravel,0
;   retractionMinTravel,3
;   retractWhileWiping,0
;   onlyWipeOutlines,1
;   avoidCrossingOutline,0
;   maxMovementDetourFactor,3
;   toolChangeRetractionDistance,12
;   toolChangeExtraRestartDistance,-0.5
;   toolChangeRetractionSpeed,600
;   externalThinWallType,0
;   internalThinWallType,2
;   thinWallAllowedOverlapPercentage,10
;   singleExtrusionMinLength,1
;   singleExtrusionMinPrintingWidthPercentage,50
;   singleExtrusionMaxPrintingWidthPercentage,200
;   singleExtrusionEndpointExtension,0.2
;   horizontalSizeCompensation,0
G90
M82
M106 S0
M104 S190 T0
M109 S190 T0
G28 ; home all axes
G92 E0
G1 E-4.0000 F1200
G1 Z0.180 F1000
; process Process1
; layer 1, Z = 0.180
T0
; tool H0.200 W0.400
; skirt
G1 X40.003 Y71.491 F4800
G1 E0.0000 F360
G92 E0
G1 X40.224 Y71.400 E0.0071 F1800
G1 X159.776 Y71.400 E3.5858
G1 X159.997 Y71.491 E3.5930
G1 X162.509 Y74.003 E3.6993
G1 X162.600 Y74.224 E3.7065
G1 X162.600 Y125.776 E5.2496
G1 X162.509 Y125.997 E5.2568
G1 X159.997 Y128.509 E5.3631
G1 X159.776 Y128.600 E5.3703
G1 X40.224 Y128.600 E8.9490
G1 X40.003 Y128.509 E8.9561
G1 X37.491 Y125.997 E9.0625
G1 X37.400 Y125.776 E9.0696
G1 X37.400 Y74.224 E10.6128
G1 X37.491 Y74.003 E10.6199
G1 X40.003 Y71.491 E10.7263
G1 X40.230 Y71.830 F4800
G92 E0
G1 X40.303 Y71.800 E0.0024 F1800
G1 X159.697 Y71.800 E3.5763
G1 X159.770 Y71.830 E3.5787
G1 X162.170 Y74.230 E3.6803
G1 X162.200 Y74.303 E3.6827
G1 X162.200 Y125.697 E5.2211
G1 X162.170 Y125.770 E5.2234
G1 X159.770 Y128.170 E5.3250
G1 X159.697 Y128.200 E5.3274
G1 X40.303 Y128.200 E8.9013
G1 X40.230 Y128.170 E8.9037
G1 X37.830 Y125.770 E9.0053
G1 X37.800 Y125.697 E9.0077
G1 X37.800 Y74.303 E10.5461
G1 X37.830 Y74.230 E10.5485
G1 X40.230 Y71.830 E10.6500
G92 E0
G1 E-4.0000 F1200
; inner perimeter
G1 X42.600 Y76.600 F4800
G1 E0.0000 F1200
G92 E0
G1 X157.400 Y76.600 E3.4364 F1350
G1 X157.400 Y123.400 E4.8374
G1 X42.600 Y123.400 E8.2738
G1 X42.600 Y76.600 E9.6747
; outer perimeter
G1 X42.200 Y76.200 F4800
G92 E0
G1 X157.800 Y76.200 E3.4604 F900
G1 X157.800 Y123.800 E4.8852
G1 X42.200 Y123.800 E8.3456
G1 X42.200 Y76.200 E9.7705
; solid layer
G1 X43.298 Y123.060 F4800
G92 E0
G1 X42.940 Y122.702 E0.0152 F1440
G1 X42.940 Y122.136 E0.0321
G1 X43.864 Y123.060 E0.0712
G1 X44.430 Y123.060 E0.0882
G1 X42.940 Y121.570 E0.1512
G1 X42.940 Y121.005 E0.1682
G1 X44.995 Y123.060 E0.2552
G1 X45.561 Y123.060 E0.2721
G1 X42.940 Y120.439 E0.3831
G1 X42.940 Y119.873 E0.4000
G1 X46.127 Y123.060 E0.5349
G1 X46.692 Y123.060 E0.5518
G1 X42.940 Y119.308 E0.7107
G1 X42.940 Y118.742 E0.7276
G1 X47.258 Y123.060 E0.9104
G1 X47.824 Y123.060 E0.9274
G1 X42.940 Y118.176 E1.1341
G1 X42.940 Y117.610 E1.1510
G1 X48.390 Y123.060 E1.3817
G1 X48.955 Y123.060 E1.3987
G1 X42.940 Y117.045 E1.6533
G1 X42.940 Y116.479 E1.6702
G1 X49.521 Y123.060 E1.9488
G1 X50.087 Y123.060 E1.9658
G1 X42.940 Y115.913 E2.2683
G1 X42.940 Y115.348 E2.2852
G1 X50.652 Y123.060 E2.6117
G1 X51.218 Y123.060 E2.6287
G1 X42.940 Y114.782 E2.9791
G1 X42.940 Y114.216 E2.9960
G1 X51.784 Y123.060 E3.3704
G1 X52.349 Y123.060 E3.3873
G1 X42.940 Y113.651 E3.7857
G1 X42.940 Y113.085 E3.8026
G1 X52.915 Y123.060 E4.2249
G1 X53.481 Y123.060 E4.2418
G1 X42.940 Y112.519 E4.6880
G1 X42.940 Y111.954 E4.7050
G1 X54.046 Y123.060 E5.1751
G1 X54.612 Y123.060 E5.1921
G1 X42.940 Y111.388 E5.6862
G1 X42.940 Y110.822 E5.7031
G1 X55.178 Y123.060 E6.2212
G1 X55.743 Y123.060 E6.2381
G1 X42.940 Y110.257 E6.7801
G1 X42.940 Y109.691 E6.7971
G1 X56.309 Y123.060 E7.3630
G1 X56.875 Y123.060 E7.3800
G1 X42.940 Y109.125 E7.9699
G1 X42.940 Y108.559 E7.9868
G1 X57.441 Y123.060 E8.6006
G1 X58.006 Y123.060 E8.6176
G1 X42.940 Y107.994 E9.2554
G1 X42.940 Y107.428 E9.2723
G1 X58.572 Y123.060 E9.9341
G1 X59.138 Y123.060 E9.9510
G1 X42.940 Y106.862 E10.6367
G1 X42.940 Y106.297 E10.6536
G1 X59.703 Y123.060 E11.3633
G1 X60.269 Y123.060 E11.3802
G1 X42.940 Y105.731 E12.1138
G1 X42.940 Y105.165 E12.1307
G1 X60.835 Y123.060 E12.8883
G1 X61.400 Y123.060 E12.9052
G1 X42.940 Y104.600 E13.6867
G1 X42.940 Y104.034 E13.7036
G1 X61.966 Y123.060 E14.5090
G1 X62.532 Y123.060 E14.5260
G1 X42.940 Y103.468 E15.3554
G1 X42.940 Y102.903 E15.3723
G1 X63.097 Y123.060 E16.2256
G1 X63.663 Y123.060 E16.2425
G1 X42.940 Y102.337 E17.1198
G1 X42.940 Y101.771 E17.1368
G1 X64.229 Y123.060 E18.0380
G1 X64.794 Y123.060 E18.0549
G1 X42.940 Y101.206 E18.9801
G1 X42.940 Y100.640 E18.9970
G1 X65.360 Y123.060 E19.9461
G1 X65.926 Y123.060 E19.9631
G1 X42.940 Y100.074 E20.9361
G1 X42.940 Y99.509 E20.9531
G1 X66.491 Y123.060 E21.9501
G1 X67.057 Y123.060 E21.9670
G1 X42.940 Y98.943 E22.9880
G1 X42.940 Y98.377 E23.0049
G1 X67.623 Y123.060 E24.0498
G1 X68.189 Y123.060 E24.0667
G1 X42.940 Y97.811 E25.1356
G1 X42.940 Y97.246 E25.1525
G1 X68.754 Y123.060 E26.2453
G1 X69.320 Y123.060 E26.2622
G1 X42.940 Y96.680 E27.3790
G1 X42.940 Y96.114 E27.3959
G1 X69.886 Y123.060 E28.5366
G1 X70.451 Y123.060 E28.5536
G1 X42.940 Y95.549 E29.7182
G1 X42.940 Y94.983 E29.7351
G1 X71.017 Y123.060 E30.9237
G1 X71.583 Y123.060 E30.9406
G1 X42.940 Y94.417 E32.1532
G1 X42.940 Y93.852 E32.1701
G1 X72.148 Y123.060 E33.4066
G1 X72.714 Y123.060 E33.4235
G1 X42.940 Y93.286 E34.6840
G1 X42.940 Y92.720 E34.7009
G1 X73.280 Y123.060 E35.9853
G1 X73.845 Y123.060 E36.0022
G1 X42.940 Y92.155 E37.3105
G1 X42.940 Y91.589 E37.3275
G1 X74.411 Y123.060 E38.6597
G1 X74.977 Y123.060 E38.6767
G1 X42.940 Y91.023 E40.0329
G1 X42.940 Y90.458 E40.0498
G1 X75.542 Y123.060 E41.4300
G1 X76.108 Y123.060 E41.4469
G1 X42.940 Y89.892 E42.8510
G1 X42.940 Y89.326 E42.8680
G1 X76.674 Y123.060 E44.2960
G1 X77.239 Y123.060 E44.3130
G1 X42.940 Y88.761 E45.7650
G1 X42.940 Y88.195 E45.7819
G1 X77.805 Y123.060 E47.2579
G1 X78.371 Y123.060 E47.2748
G1 X42.940 Y87.629 E48.7747
G1 X42.940 Y87.063 E48.7916
G1 X78.937 Y123.060 E50.3155
G1 X79.502 Y123.060 E50.3324
G1 X42.940 Y86.498 E51.8802
G1 X42.940 Y85.932 E51.8971
G1 X80.068 Y123.060 E53.4689
G1 X80.634 Y123.060 E53.4858
G1 X42.940 Y85.366 E55.0815
G1 X42.940 Y84.801 E55.0985
G1 X81.199 Y123.060 E56.7181
G1 X81.765 Y123.060 E56.7350
G1 X42.940 Y84.235 E58.3786
G1 X42.940 Y83.669 E58.3955
G1 X82.331 Y123.060 E60.0631
G1 X82.896 Y123.060 E60.0800
G1 X42.940 Y83.104 E61.7715
G1 X42.940 Y82.538 E61.7884
G1 X83.462 Y123.060 E63.5039
G1 X84.028 Y123.060 E63.5208
G1 X42.940 Y81.972 E65.2602
G1 X42.940 Y81.407 E65.2771
G1 X84.593 Y123.060 E67.0404
G1 X85.159 Y123.060 E67.0574
G1 X42.940 Y80.841 E68.8446
G1 X42.940 Y80.275 E68.8616
G1 X85.725 Y123.060 E70.6728
G1 X86.290 Y123.060 E70.6897
G1 X42.940 Y79.710 E72.5249
G1 X42.940 Y79.144 E72.5418
G1 X86.856 Y123.060 E74.4009
G1 X87.422 Y123.060 E74.4179
G1 X42.940 Y78.578 E76.3009
G1 X42.940 Y78.012 E76.3179
G1 X87.988 Y123.060 E78.2249
G1 X88.553 Y123.060 E78.2418
G1 X42.940 Y77.447 E80.1727
G1 X42.940 Y76.940 E80.1879
G1 X42.999 Y76.940 E80.1897
G1 X89.119 Y123.060 E82.1421
G1 X89.685 Y123.060 E82.1590
G1 X43.565 Y76.940 E84.1114
G1 X44.130 Y76.940 E84.1284
G1 X90.250 Y123.060 E86.0808
G1 X90.816 Y123.060 E86.0977
G1 X44.696 Y76.940 E88.0501
G1 X45.262 Y76.940 E88.0670
G1 X91.382 Y123.060 E90.0195
G1 X91.947 Y123.060 E90.0364
G1 X45.827 Y76.940 E91.9888
G1 X46.393 Y76.940 E92.0057
G1 X92.513 Y123.060 E93.9581
G1 X93.079 Y123.060 E93.9751
G1 X46.959 Y76.940 E95.9275
G1 X47.524 Y76.940 E95.9444
G1 X93.644 Y123.060 E97.8968
G1 X94.210 Y123.060 E97.9138
G1 X48.090 Y76.940 E99.8662
G1 X48.656 Y76.940 E99.8831
G1 X94.776 Y123.060 E101.8355
G1 X95.341 Y123.060 E101.8524
G1 X49.221 Y76.940 E103.8049
G1 X49.787 Y76.940 E103.8218
G1 X95.907 Y123.060 E105.7742
G1 X96.473 Y123.060 E105.7911
G1 X50.353 Y76.940 E107.7435
G1 X50.918 Y76.940 E107.7605
G1 X97.038 Y123.060 E109.7129
G1 X97.604 Y123.060 E109.7298
G1 X51.484 Y76.940 E111.6822
G1 X52.050 Y76.940 E111.6992
G1 X98.170 Y123.060 E113.6516
G1 X98.736 Y123.060 E113.6685
G1 X52.616 Y76.940 E115.6209
G1 X53.181 Y76.940 E115.6378
G1 X99.301 Y123.060 E117.5903
G1 X99.867 Y123.060 E117.6072
G1 X53.747 Y76.940 E119.5596
G1 X54.313 Y76.940 E119.5765
G1 X100.433 Y123.060 E121.5289
G1 X100.998 Y123.060 E121.5459
G1 X54.878 Y76.940 E123.4983
G1 X55.444 Y76.940 E123.5152
G1 X101.564 Y123.060 E125.4676
G1 X102.130 Y123.060 E125.4846
G1 X56.010 Y76.940 E127.4370
G1 X56.575 Y76.940 E127.4539
G1 X102.695 Y123.060 E129.4063
G1 X103.261 Y123.060 E129.4232
G1 X57.141 Y76.940 E131.3756
G1 X57.707 Y76.940 E131.3926
G1 X103.827 Y123.060 E133.3450
G1 X104.392 Y123.060 E133.3619
G1 X58.272 Y76.940 E135.3143
G1 X58.838 Y76.940 E135.3313
G1 X104.958 Y123.060 E137.2837
G1 X105.524 Y123.060 E137.3006
G1 X59.404 Y76.940 E139.2530
G1 X59.969 Y76.940 E139.2699
G1 X106.089 Y123.060 E141.2224
G1 X106.655 Y123.060 E141.2393
G1 X60.535 Y76.940 E143.1917
G1 X61.101 Y76.940 E143.2086
G1 X107.221 Y123.060 E145.1610
G1 X107.787 Y123.060 E145.1780
G1 X61.667 Y76.940 E147.1304
G1 X62.232 Y76.940 E147.1473
G1 X108.352 Y123.060 E149.0997
G1 X108.918 Y123.060 E149.1167
G1 X62.798 Y76.940 E151.0691
G1 X63.364 Y76.940 E151.0860
G1 X109.484 Y123.060 E153.0384
G1 X110.049 Y123.060 E153.0553
G1 X63.929 Y76.940 E155.0078
G1 X64.495 Y76.940 E155.0247
G1 X110.615 Y123.060 E156.9771
G1 X111.181 Y123.060 E156.9940
G1 X65.061 Y76.940 E158.9464
G1 X65.626 Y76.940 E158.9634
G1 X111.746 Y123.060 E160.9158
G1 X112.312 Y123.060 E160.9327
G1 X66.192 Y76.940 E162.8851
G1 X66.758 Y76.940 E162.9021
G1 X112.878 Y123.060 E164.8545
G1 X113.443 Y123.060 E164.8714
G1 X67.323 Y76.940 E166.8238
G1 X67.889 Y76.940 E166.8407
G1 X114.009 Y123.060 E168.7932
G1 X114.575 Y123.060 E168.8101
G1 X68.455 Y76.940 E170.7625
G1 X69.020 Y76.940 E170.7794
G1 X115.140 Y123.060 E172.7318
G1 X115.706 Y123.060 E172.7488
G1 X69.586 Y76.940 E174.7012
G1 X70.152 Y76.940 E174.7181
G1 X116.272 Y123.060 E176.6705
G1 X116.837 Y123.060 E176.6875
G1 X70.717 Y76.940 E178.6399
G1 X71.283 Y76.940 E178.6568
G1 X117.403 Y123.060 E180.6092
G1 X117.969 Y123.060 E180.6261
G1 X71.849 Y76.940 E182.5785
G1 X72.415 Y76.940 E182.5955
G1 X118.535 Y123.060 E184.5479
G1 X119.100 Y123.060 E184.5648
G1 X72.980 Y76.940 E186.5172
G1 X73.546 Y76.940 E186.5342
G1 X119.666 Y123.060 E188.4866
G1 X120.232 Y123.060 E188.5035
G1 X74.112 Y76.940 E190.4559
G1 X74.677 Y76.940 E190.4729
G1 X120.797 Y123.060 E192.4253
G1 X121.363 Y123.060 E192.4422
G1 X75.243 Y76.940 E194.3946
G1 X75.809 Y76.940 E194.4115
G1 X121.929 Y123.060 E196.3639
G1 X122.494 Y123.060 E196.3809
G1 X76.374 Y76.940 E198.3333
G1 X76.940 Y76.940 E198.3502
G1 X123.060 Y123.060 E200.3026
G1 X123.626 Y123.060 E200.3196
G1 X77.506 Y76.940 E202.2720
G1 X78.071 Y76.940 E202.2889
G1 X124.191 Y123.060 E204.2413
G1 X124.757 Y123.060 E204.2582
